!! 00000] TT[WS
!!!OTL: Sibao kang changgong
!!!ARE: Asia, China,ÿShanxi Mengxian
!! Ethnic Group: Han
!! WI, 68
!!!SCT: J0080
!!!YEM: Copyright 1995, estate of Helmut Schaffrath.
**kern
*ICvox
*Ivox
*M2/4
*k[b-e-a-]
*E-:
{8cc
8b-
8cc
8g
=1
4b-
4b-
=2
8g
8b-
8cc
8ee-
=3
2b-}
=4
{8.ff
16ff
4ee-
=5
8ff
16gg
16ff
4ee-
=6
8g
8b-
8cc
8ee-
=7
2b-}
=8
{4g
4ee-
=9
8cc
4cc
8dd
=10
8cc
8dd
8cc
8b-
=11
4.cc
8dd
=12
8cc
8b-
8a-
8g
=13
2f}
=14
{4g
4cc
=15
4g
4b-
=16
8g
8f
8g
8b-
=17
4.g
8b-
=18
8g
8f
8e-
8f
=19
2e-}
=20
{8g
8f
8e-
8f
=21
8g
8f
8e-
8f
=22
8g
8f
8e-
8f
=23
2e-}
==
!!!AGN: Xiaodiao. Qingge
!!!ONB: ESAC (Essen Associative Code) Database: CHINA
!!!AMT: simple duple
!!!AIN: vox
!!!EED: Helmut Schaffrath
!!!EEV: 1.0
*-
